X: 7826
T: Comfy Crane, The
R: jig
M: 6/8
K: Gminor
|:D>GA BAG|AcA F2D|EGB BAG|BAG ^F2D|
D>GA BAG|AcA F2D|Cdd ^cde|1 dcA G3:|2 dcA G2d||
|:dcc cBB|BAA ABc|cBB BAG|ABA ABc|
dcc cBB|BAA ABc|Ddd ^cde|1 dcA G2d:|2 dcA G3||

